X: 6437
T: Castlebar Tramp, The
R: reel
M: 4/4
K: Amixolydian
eAcA eAcA|BG ~G2 Bc d2|eAcA eAcA|Beed Bd A2|
eAcA eAcA|BG ~G2 Bc d2|~e3 d BAGA|Beed Bd A2|
|:ABAG EDEF|G2 BG dGBG|a2 ag edBA|Beed Bd A2:|

